beaker-alert.svg

<svg fill="currentColor" viewBox="0 0 24 24"><path d="M3 3h18v2c-1.1 0-2 .9-2 2v12c0 1.1-.9 2-2 2H7c-1.1 0-2-.9-2-2V7c0-1.1-.9-2-2-2zm4 6v1h3V9zm0 2v1h3v-1zm3 5v-1H7v1zm2-2v-1H7v1zm0-6V7H7v1zm9 5V7h2v6zm0 4v-2h2v2z"/></svg>

<svg  viewBox="0 0 24 24" fill="currentColor"><path  d="M3 3H21V5C19.9 5 19 5.9 19 7V19C19 20.1 18.1 21 17 21H7C5.9 21 5 20.1 5 19V7C5 5.9 4.1 5 3 5V3M7 9V10H10V9H7M7 11V12H10V11H7M10 16V15H7V16H10M12 14V13H7V14H12M12 8V7H7V8H12M21 13V7H23V13H21M21 17V15H23V17H21Z"/></svg>
